svgs/sharp-solid/child-combatant.svg

<svg xmlns="http://www.w3.org/2000/svg" viewBox="0 0 576 512"><!--! Font Awesome Pro 6.6.0 by @fontawesome - https://fontawesome.com License - https://fontawesome.com/license (Commercial License) Copyright 2024 Fonticons, Inc. --><path d="M176 128A64 64 0 1 0 176 0a64 64 0 1 0 0 128zm-43.1 32l-16 0-9.6 12.8-72.1 96L16 294.4l51.2 38.4 19.2-25.6L96 294.4 96 480l0 32 64 0 0-32 0-96 32 0 0 96 0 32 64 0 0-32 0-185.6 9.6 12.8 19.2 25.6L336 294.4l-19.2-25.6-72.1-96L235.1 160l-16 0-86.2 0zM464 0L448 0 416 0 400 0l0 32 16 0 0 96-16 0 0 64-32 0 0 208 48 0 0 112 96 0L484 400l60 0 0-48-64 0 0-26.7L544 304l0-112-48 0 0 72-16 5.3L480 128l-16 0L464 0z"/></svg>

<svg xmlns="http://www.w3.org/2000/svg" viewBox="0 0 576 512"><!--! Font Awesome Pro 6.4.2 by @fontawesome - https://fontawesome.com License - https://fontawesome.com/license (Commercial License) Copyright 2023 Fonticons, Inc. --><path d="M176 128A64 64 0 1 0 176 0a64 64 0 1 0 0 128zm-43.1 32h-16l-9.6 12.8-72.1 96L16 294.4l51.2 38.4 19.2-25.6L96 294.4V480v32h64V480 384h32v96 32h64V480 294.4l9.6 12.8 19.2 25.6L336 294.4l-19.2-25.6-72.1-96L235.1 160h-16H132.9zM464 0H448 416 400V32h16v96H400v64H368V400h48V512h96L484 400h60V352H480V325.3L544 304V192H496v72l-16 5.3V128H464V0z"/></svg>
